X:77
T:Branohm #1
R:reel
C:Maire Breathnach
D:Maire Breathnach: "Voyage of Bran", 2a
M:C|
L:1/8
K:Ador
ag||e~A3 cdec|degd BAGB|A~E3 ABcd|egfa geag|
e~A3 cdec|degd BAGB|A~E3 cdec|d2gd BAag|
e~A3 cdec|degd BAGB|A~E3 FGAB|cdea geag|
e~A3 cdec|d2gd BAGB|A~E3 cdec|degd BAAd||
~e3f g2af|gedc Bcdg|e~a2g a2ga|baed ^cdef|
geaf fgef|gedc BAGB|A~E3 cdec|d2gd BAAd|
~e3f g2af|gedc Bcdg|e~a2g ~a3b|aged ^cdef|
geaf fgef|gedc BAGB|A~E3 cdec|d2gd BAag||
